X:2055
L:1/8
Q:1/4=100
M:6/8
K:F
 c | AcA cAc | BdB dBd | AcA cAc | fgf f2 c | AcA cAc | BcB d2 e | fed cBA | GAG G2 || c | 
 AFA fga | AFA f2 a | AFA fga | G2 G G2 c | AFA fga | gfe fed | cfd cAf | F2 F F2 |]

